dist/images/star-turqoise.svg

<svg baseProfile="basic" xmlns="http://www.w3.org/2000/svg" viewBox="0 0 72 66"><style>.st0{fill:#72c2e1}</style><path class="st0" d="M71.2 25.5h-26l-8.2-24.5-8.3 24.5h-27.9l22 15.1-8.6 24.4 22.6-15.2 21 15.2-8.4-24.4 21.8-15.1zm-18.4 32.7l-16-11.7-17.5 11.7 6.5-18.8-16.8-11.4h21.7l6.3-18.8 6.3 18.8h19.8l-16.8 11.5 6.5 18.7zm6.2-28.9h-16.7l-5.4-16-5.4 16h-18.5l14.3 9.8-5.5 16 15-9.9 13.4 9.9-5.5-16 14.3-9.8z"/></svg>

<svg baseProfile="basic" id="Layer_1" xmlns="http://www.w3.org/2000/svg" viewBox="0 0 72 66"><style>.st0{fill:#72c2e1}</style><path class="st0" d="M71.2 25.5h-26L37 1l-8.3 24.5H.8l22 15.1L14.2 65l22.6-15.2 21 15.2-8.4-24.4 21.8-15.1zM52.8 58.2l-16-11.7-17.5 11.7 6.5-18.8L9 28h21.7L37 9.2 43.3 28h19.8L46.3 39.5l6.5 18.7zM59 29.3H42.3l-5.4-16-5.4 16H13l14.3 9.8-5.5 16 15-9.9 13.4 9.9-5.5-16L59 29.3z"/></svg>
